packages/icons/general/SearchEmpty.svg

<svg width="36" height="36" viewBox="0 0 36 36" xmlns="http://www.w3.org/2000/svg">
<g>
        <path
            fill-rule="evenodd"
            clip-rule="evenodd"
            d="M4.58926 4.5878C6.61192 2.56515 9.63194 1.79883 13.5003 1.79883H22.5003C26.3686 1.79883 29.3887 2.56515 31.4113 4.5878C33.434 6.61045 34.2003 9.63047 34.2003 13.4988V22.4988C34.2003 26.3672 33.434 29.3872 31.4113 31.4099C29.3887 33.4325 26.3686 34.1988 22.5003 34.1988H13.5003C9.63194 34.1988 6.61192 33.4325 4.58926 31.4099C2.56661 29.3872 1.80029 26.3672 1.80029 22.4988V13.4988C1.80029 9.63047 2.56661 6.61045 4.58926 4.5878ZM6.28632 6.28486C4.93397 7.63721 4.20029 9.86718 4.20029 13.4988V22.4988C4.20029 26.1305 4.93397 28.3604 6.28632 29.7128C7.63867 31.0652 9.86865 31.7988 13.5003 31.7988H22.5003C26.1319 31.7988 28.3619 31.0652 29.7143 29.7128C31.0666 28.3604 31.8003 26.1305 31.8003 22.4988V13.4988C31.8003 9.86718 31.0666 7.63721 29.7143 6.28486C28.3619 4.93251 26.1319 4.19883 22.5003 4.19883H13.5003C9.86865 4.19883 7.63867 4.93251 6.28632 6.28486Z"
            fill="#ACB4C1"
        />
        <path
            fill-rule="evenodd"
            clip-rule="evenodd"
            d="M25.7486 21.6858C25.7485 21.6861 25.7488 21.6855 25.7486 21.6858L24.4136 24.3708C23.7021 25.7938 22.2538 26.6992 20.6553 26.6992H15.3603C14.9239 26.6992 12.7631 26.6961 11.5909 24.3936L11.5857 24.3835L10.252 21.7008C10.2518 21.7005 10.2522 21.7012 10.252 21.7008C9.94329 21.0844 9.3214 20.6992 8.64029 20.6992H3.00029C2.33755 20.6992 1.80029 20.1619 1.80029 19.4992C1.80029 18.8364 2.33755 18.2992 3.00029 18.2992H8.64029C10.2388 18.2992 11.6871 19.2046 12.3986 20.6275L12.3998 20.6299L13.732 23.3093C14.2385 24.2992 15.072 24.2992 15.3577 24.2992H20.6553C21.3365 24.2992 21.9579 23.9149 22.2665 23.2984C22.2667 23.2981 22.2664 23.2987 22.2665 23.2984L23.602 20.6125C24.3135 19.1896 25.7618 18.2842 27.3603 18.2842H32.9703C33.633 18.2842 34.1703 18.8214 34.1703 19.4842C34.1703 20.1469 33.633 20.6842 32.9703 20.6842H27.3603C26.6791 20.6842 26.0573 21.0693 25.7486 21.6858Z"
            fill="#ACB4C1"
        />
    </g>
</svg>

<svg xmlns="http://www.w3.org/2000/svg" width="36" height="36">
    <g fill="#ACB4C1" fill-rule="evenodd" clip-rule="evenodd">
        <path d="M4.59 4.588c2.022-2.023 5.042-2.79 8.91-2.79h9c3.869 0 6.889.767 8.911 2.79 2.023 2.022 2.79 5.042 2.79 8.91v9c0 3.87-.767 6.89-2.79 8.912-2.022 2.022-5.042 2.789-8.91 2.789h-9c-3.87 0-6.89-.767-8.912-2.79C2.567 29.388 1.8 26.368 1.8 22.5v-9c0-3.869.767-6.889 2.79-8.911Zm1.696 1.697C4.934 7.637 4.2 9.867 4.2 13.499v9c0 3.632.734 5.861 2.086 7.214 1.353 1.352 3.583 2.086 7.214 2.086h9c3.632 0 5.862-.734 7.214-2.086 1.353-1.353 2.086-3.582 2.086-7.214v-9c0-3.632-.733-5.862-2.086-7.214-1.352-1.352-3.582-2.086-7.214-2.086h-9c-3.631 0-5.861.734-7.214 2.086Z"/>
        <path d="m25.749 21.686-1.335 2.685a4.2 4.2 0 0 1-3.759 2.328H15.36c-.436 0-2.597-.003-3.77-2.305l-.004-.01-1.334-2.683a1.802 1.802 0 0 0-1.612-1.002H3a1.2 1.2 0 0 1 0-2.4h5.64a4.2 4.2 0 0 1 3.759 2.329v.002l1.333 2.68c.507.99 1.34.99 1.626.99h5.297a1.8 1.8 0 0 0 1.611-1.002l1.336-2.685a4.2 4.2 0 0 1 3.758-2.329h5.61a1.2 1.2 0 1 1 0 2.4h-5.61a1.8 1.8 0 0 0-1.611 1.002Z"/>
    </g>
</svg>
